!!!!SEGMENT: pl-sa--556-a-ix-36--002_danielski-florian--valse-a-trois-mains.krn
!!!cenid: 18xx:325
!!!COM: Danielski, Florian
!!!COM-rismid: pe30085945
!!!CDT: 1795-~1860
!!!CNT:
!!!OTL: Valse a trois mains
!!!PDT:
!!!AGN: Secular
!!!SMS-siglum: PL-SA
!!!SMS-shelfmark: 556/A IX 36
!!!SMS-shelfwork: 002 W
!!!SMS-variant:
!!!SMS-altvar:
!!!NIFC-rismid:
!!!URL-scan: http://bc.bdsandomierz.pl/dlibra/publication/1312/edition/1280/content
!!!ONB-nifc:
!!!AIN: 3 piano
!!!key:
**kern	**kern	**dynam	**kern
*part3	*part2	*part2	*part1
*staff3	*staff2	*	*staff1
*Ipiano	*Ipiano	*	*Ipiano
*I"Piano	*I"Piano	*	*I"Piano
*clefF4	*clefG2	*	*clefG2
*k[b-e-]	*k[b-e-]	*	*k[b-e-]
*E-:	*E-:	*	*E-:
*M3/8	*M3/8	*	*M3/8
*>[A,A,B,B,C,D,D,A]	*>[A,A,B,B,C,D,D,A]	*	*>[A,A,B,B,C,D,D,A]
*all\right	*all\right	*	*all\right
*>A	*>A	*	*>A
8r	8f/	.	8r
=1	=1	=1	=1
8BB- 8BBB-/	8b-L 8d/	f	4.r
16B-LL 16D\	16b-L 16d/	.	.
16B-J 16D\	16b-J 16d/	.	.
8B-J 8D\	8b-J 8d/	.	.
=2	=2	=2	=2
8F 8FF/	8ccL 8f/	.	4.r
16cLL 16F\	16ccL 16f/	.	.
16cJ 16F\	16ccJ 16f/	.	.
8cJ 8F\	8ccJ 8f/	.	.
=3	=3	=3	=3
8B-L 8BB-\	8ddL 8b-\	.	4.r
8d\	8dd 8b-\	.	.
16e-L 16c\	16ee-L 16cc\	.	.
16dJJ 16B-\	16ddJJ 16b-\	.	.
=4	=4	=4	=4
8cL 8A\	8ccL 8a/	.	4.r
8FJ 8FF\	8ffJ 8a 8f/	.	.
8r	8r	.	.
=5	=5	=5	=5
*	*	*	*8va
!	!	!LO:DY:t=p.	!
4D 4DD/	8r	p	16eeen\LL
.	.	.	16fff\
.	8b-L 8f 8B-/	.	16eee\
.	.	.	16fff\
8r	8b-J 8f 8B-/	.	16bbb-\
.	.	.	16aaa\JJ
=6	=6	=6	=6
4E- 4EE-/	8r	.	16fff#X\LL
.	.	.	16ggg\
.	8ccL 8g 8e-/	.	16fff#\
.	.	.	16ggg\
8r	8ccJ 8g 8e-/	.	16eeee-\
.	.	.	16cccc\JJ
=7	=7	=7	=7
8FL 8FF/	8aL 8e- 8c/	.	16bbb-\LL
.	.	f	16aaa\
.	.	.	8qaaa/
8F 8FF/	8a 8e- 8c/	.	16ggg\
.	.	.	16fff\
8FJ 8FF/	8aJ 8e- 8c/	.	16ggg\
.	.	.	16aaa\JJ
=	=	=	=
!	!LO:TX:b:i:t=Fine	!	!
4BB-/	4b- 4d 4B-/	.	4bbb-\
*	*	*	*X8va
=8:|!|:	=8:|!|:	=8:|!|:	=8:|!|:
*>B	*>B	*	*>B
8r	8f/	.	8r
=9	=9	=9	=9
8FL 8FF/	8ffL 8a 8f\	.	4.r
8F 8FF/	16ffL 16a 16f\	.	.
.	16ffJ 16a 16f\	.	.
8FJ 8FF/	8ffJ 8a 8f\	.	.
=10	=10	=10	=10
8FL 8FF/	8eenL 8b- 8g\	.	(<8ccc'<\L
8F 8FF/	16eeL 16b- 16g\	.	8ddd'<\
.	16eeJ 16b- 16g\	.	.
8FJ 8FF/	8eeJ 8b- 8g\	.	8eeen'<\J)
!LO:LB:g=original	!LO:LB:g=original	!	!LO:LB:g=original
=11	=11	=11	=11
8FL 8FF/	8ee-L 8a 8f\	.	(8fff'\L
8F 8FF/	16ee-L 16a 16f\	.	8ggg'^<\
.	16ee-J 16a 16f\	.	.
8FJ 8FF/	8ee-J 8a 8f\	.	8fff'\J)
=12	=12	=12	=12
8FL 8FF/	4dd 4b- 4f/	.	4ddd\
8F 8FF/	.	.	.
8FJ 8FF/	8r	.	8r
=13	=13	=13	=13
8FL 8FF/	8dd-XL 8g 8en/	.	8bb-\L
8F 8FF/	16dd-L 16g 16e/	.	16bb-\L
.	16dd-J 16g 16e/	.	16bb-\J
8FJ 8FF/	8dd-J 8g 8e/	.	8bb-\J
=14	=14	=14	=14
*	*^	*	*
!	!	!	!LO:HP:a	!
8FL 8FF/	8dd-X/L	4.g 4.en\	<	8bb-\L
8F 8FF/	8cc/	.	.	8ccc\
8FJ 8FF/	8b-/J	.	.	8ddd\J
=15	=15	=15	=15	=15
!	!LO:N:vis=4	!	!	!
8FL 8FF/	4.en/	8d-X\L	.	4eeen\
8F 8FF/	.	8c\	.	.
8FJ 8FF/	.	8B-\J	.	16dddn\LL
.	.	.	[	16eee\JJ
=16	=16	=16	=16	=16
!	!	!	!LO:HP:a	!
4F 4FF/	4f/	4.A\	>	16fff\LL
.	.	.	.	16eeen\
.	.	.	.	16eee-X\
.	.	.	.	16ddd\
8r	8f/	.	.	16ccc\
.	.	.	.	16aa\JJ
*	*v	*v	*	*
=17	=17	=17	=17
!	!	!LO:DY:rj	!
8BB- 8BBB-/	8b-L 8d/	] f	4bb-\
16B-LL 16D\	16b-L 16d/	.	.
16B-J 16D\	16b-J 16d/	.	.
8B-J 8D\	8b-J 8d/	.	8r
=18	=18	=18	=18
8F 8FF/	8ccL 8f/	.	4.r
16cLL 16F\	16ccL 16f/	.	.
16cJ 16F\	16ccJ 16f/	.	.
8cJ 8F\	8ccJ 8f/	.	.
=19	=19	=19	=19
8B-L 8BB-\	8ddL 8b-\	.	4.r
8d 8B-\	8dd 8b-\	.	.
16e-L 16c\	16ee-L 16cc\	.	.
16dJJ 16B-\	16ddJJ 16b-\	.	.
=20	=20	=20	=20
8cL 8A\	8ccL 8a/	.	4.r
8FJ 8FF\	8ffJ 8a 8f/	sf	.
8r	8r	.	.
=21	=21	=21	=21
*	*	*	*8va
4D 4DD/	8r	.	16eeen\LL
.	.	.	16fff\
!	!	!LO:DY:t=p.	!
.	8b-L 8f 8B-/	p	16eee\
.	.	.	16fff\
8r	8b-J 8f 8B-/	.	16bbb-\
.	.	.	16aaa\JJ
=22	=22	=22	=22
4E- 4EE-/	8r	.	16fff#X\LL
.	.	.	16ggg\
.	8ccL 8g 8e-/	.	16fff#\
.	.	.	16ggg\
8r	8ccJ 8g 8e-/	.	16eeee-\
.	.	.	16cccc\JJ
!LO:LB:g=original	!LO:LB:g=original	!	!LO:LB:g=original
=23	=23	=23	=23
!LO:TX:a:t=P:problem=nieczytelny zapis [rozpisano zgodnie z t. 7]	!LO:TX:a:t=P:problem=nieczytelny zapis [rozpisano zgodnie z t. 7]	!	!
8FLyy 8FFyy/	8aL 8e- 8cyy/	.	16bbb-\LL
.	.	.	16aaa\
.	.	.	8qaaa/
8F 8FF/	8a 8e- 8c/	.	16ggg\
.	.	.	16fff\
8FJ 8FF/	8aJ 8e- 8c/	.	16ggg\
.	.	.	16aaa\JJ
=	=	=	=
4BB-/	4b- 4d 4B-/	.	4bbb-\
*	*	*	*X8va
=24:|!	=24:|!	=24:|!	=24:|!
*>C	*>C	*	*>C
*k[b-e-a-]	*k[b-e-a-]	*	*k[b-e-a-]
8r	8B-/	.	8ryy
=25	=25	=25	=25
*	*	*	*ped
8E-L 8EE-\	8e-L 8B- 8G/	.	4.r
8E- 8EE-\	8e- 8B- 8G/	.	.
8E-J 8EE-\	8e-J 8B- 8G/	.	.
=26	=26	=26	=26
*tremolo	*tremolo	*	*
8E- 8EE-\L	8e- 8B- 8G/L	.	4.r
8E- 8EE-\	8e- 8B- 8G/	.	.
8E- 8EE-\J	8e- 8B- 8G/J	.	.
=27	=27	=27	=27
8E- 8EE-\L	8e- 8B- 8G/L	.	4.r
8E- 8EE-\	8e- 8B- 8G/	.	.
8E- 8EE-\J	8e- 8B- 8G/J	.	.
*	*Xtremolo	*	*
=28	=28	=28	=28
8E- 8EE-/L	8e-L 8B- 8G/	.	8r
8E- 8EE-/	8e- 8B- 8G/	.	8r
8E- 8EE-/J	8e-J 8B- 8G/	.	(16f#X/LL
.	.	.	16g/JJ)
=29	=29	=29	=29
8E- 8EE-/L	8e-L 8B- 8G/	.	8e-/|
8E- 8EE-/	8e- 8B- 8G/	.	8r
8E- 8EE-/J	8e-J 8B- 8G/	.	16an/LL
.	.	.	16b-/JJ
=30	=30	=30	=30
*	*tremolo	*	*
8E- 8EE-/L	8e- 8B- 8G/L	.	8g/|
8E- 8EE-/	8e- 8B- 8G/	.	8r
8E- 8EE-/J	8e- 8B- 8G/J	.	16dd\LL
.	.	.	16ee-\JJ
=31	=31	=31	=31
8E- 8EE-/L	8e- 8B- 8G/L	.	16b-\LL|
.	.	.	(16ff#X\
8E- 8EE-/	8e- 8B- 8G/	.	16gg\
.	.	.	16dd\
8E- 8EE-/J	8e- 8B- 8G/J	.	16ee-\
.	.	.	16gg\JJ)
=32	=32	=32	=32
8E- 8EE-/L	8e- 8B- 8G/L	.	8bb-\
8E- 8EE-/	8e- 8B- 8G/	.	8r
8E- 8EE-/J	8e- 8B- 8G/J	.	(16ddd\LL
.	.	.	16eee-\JJ)
=33	=33	=33	=33
8E- 8EE-/L	8e- 8B- 8G/L	.	8gg\
8E- 8EE-/	8e- 8B- 8G/	.	8r
8E- 8EE-/J	8e- 8B- 8G/J	.	16aan\LL
.	.	.	16bb-\JJ
=34	=34	=34	=34
8E- 8EE-/L	8e- 8B- 8G/L	.	8ee-\
8E- 8EE-/	8e- 8B- 8G/	.	8r
8E- 8EE-/J	8e- 8B- 8G/J	.	16ff#X\LL
.	.	.	16gg\JJ
*Xtremolo	*Xtremolo	*	*
!LO:PB:g=original	!LO:PB:g=original	!	!LO:PB:g=original
=35	=35	=35	=35
8E-L 8EE-/	8e-L 8B- 8G/	.	(16ee-\LL
.	.	.	16b-\
8E- 8EE-/	8e- 8B- 8G/	.	16g\
.	.	.	16gg\
8BB-/J	8dJ 8A-/	rf	16ff^\
.	.	.	16a-\JJ)
=36	=36	=36	=36
*tremolo	*tremolo	*	*
8E- 8EE-/L	8e- 8B- 8G/L	.	8ee- 8g\
8E- 8EE-/	8e- 8B- 8G/	.	8r
*	*	*	*8va
8E- 8EE-/J	8e- 8B- 8G/J	.	16ff#X/LL
.	.	.	16gg/JJ
=37	=37	=37	=37
8E- 8EE-/L	8e- 8B- 8G/L	.	8ee-/
8E- 8EE-/	8e- 8B- 8G/	.	8r
8E- 8EE-/J	8e- 8B- 8G/J	.	16aan/LL
.	.	.	16bb-/JJ
=38	=38	=38	=38
8E- 8EE-/L	8e- 8B- 8G/L	.	8gg/
8E- 8EE-/	8e- 8B- 8G/	.	8r
8E- 8EE-/J	8e- 8B- 8G/J	.	16ddd\LL
.	.	.	16eee-\JJ
=39	=39	=39	=39
8E- 8EE-/L	8e- 8B- 8G/L	.	16bb-\LL
.	.	.	16fff#X\
8E- 8EE-/	8e- 8B- 8G/	.	16ggg\
.	.	.	16ddd\
8E- 8EE-/J	8e- 8B- 8G/J	.	16eee-\
.	.	.	16ggg\JJ
=40	=40	=40	=40
8E- 8EE-/L	8e- 8B- 8G/L	.	8bbb-\
8E- 8EE-/	8e- 8B- 8G/	.	8r
8E- 8EE-/J	8e- 8B- 8G/J	.	16dddd\LL
.	.	.	16eeee-\JJ
=41	=41	=41	=41
8E- 8EE-/L	8e- 8B- 8G/L	.	8ggg\
8E- 8EE-/	8e- 8B- 8G/	.	8r
8E- 8EE-/J	8e- 8B- 8G/J	.	16aaan\LL
.	.	.	16bbb-\JJ
=42	=42	=42	=42
8E- 8EE-/L	8e- 8B- 8G/L	.	8eee-\
8E- 8EE-/	8e- 8B- 8G/	.	8r
8E- 8EE-/J	8e- 8B- 8G/J	.	16fff#X\LL
.	.	.	16ggg\JJ
*Xtremolo	*Xtremolo	*	*
=43	=43	=43	=43
8E-L 8EE-\	8e-L 8B- 8G/	.	16eee-\LL
.	.	.	16bb-\
8E- 8EE-\	8e- 8B- 8G/	.	16gg\
.	.	.	16ggg\
8BB-\J	8dJ 8A-/	.	16fff^\
.	.	.	16aa-\JJ
=	=	=	=
4E-\	4e- 4B- 4G/	.	4eee- 4gg\
*	*	*	*X8va
=44!|:	=44!|:	=44!|:	=44!|:
*>D	*>D	*	*>D
!	!	!	!LO:TX:a:i:t=loco.
8r	8r	.	8gg\
=45	=45	=45	=45
4BB- 4BBB-\	8r	.	(16bb-\LL
.	.	.	16aa-\
.	8dL 8A-< 8F</	.	16ff\
.	.	.	16dd\J)
8r	8dJ 8A-< 8F</	.	8b-^\J
!LO:LB:g=original	!LO:LB:g=original	!	!LO:LB:g=original
=46	=46	=46	=46
4BB- 4BBB-\	8r	.	(8bb-'\L
.	8dL 8A-< 8F</	.	8ccc'\
8r	8dJ 8A-< 8F</	.	8ddd'\J)
=47	=47	=47	=47
4E- 4EE-\	8r	.	16eee-sSSs\LL
.	.	.	16fff\
.	8e-L 8B-< 8G</	.	16ggg\
.	.	.	16fff\
8r	8e-J 8B-< 8G</	.	16eee-\
.	.	.	16ccc\JJ
=48	=48	=48	=48
4E- 4EE-\	8r	.	4bb-\
.	8e-L 8B-< 8G</	.	.
8r	8e-J 8B-< 8G</	.	8gg\
=49	=49	=49	=49
4BB- 4BBB-\	8r	.	(16bb-\LL
.	.	.	16aa-\
.	8dL 8A-< 8F</	.	16ff\
.	.	.	16dd\J)
!	!	!	!LO:N:vis=16
8r	8dJ 8A-< 8F</	.	8b-^\J
=50	=50	=50	=50
4BB- 4BBB-\	8r	.	(16aan\LL
.	.	.	16bb-\JJ)
.	8dL 8A-< 8F</	.	(16bbn\LL
.	.	.	16ccc\JJ)
8r	8dJ 8A-< 8F</	.	16ccc#X\LL
.	.	.	16ddd\JJ
=51	=51	=51	=51
4E- 4EE-\	8r	.	16eee-\LL
.	.	.	16fff\
.	8e-L 8B-< 8G</	.	16ggg\
.	.	.	16ddd\
.	.	.	8qfff/
8r	8e-J 8B-< 8G</	.	16eee-\
.	.	.	16ccc\JJ
=52	=52	=52	=52
4E- 4EE-\	8r	.	4bb-\
.	8e-L 8G< 8E-</	.	.
8r	8e-J 8G< 8E-</	.	8r
=53	=53	=53	=53
4.GG/	8r	.	(16bbn\LL
.	.	.	16gg\
.	8fL 8Bn/	sf	16ff\
.	.	.	16dd\J)
.	8fJ 8B/	.	8bn^\J
=54	=54	=54	=54
4.GG/	8r	.	(16ddd\LL
.	.	.	16bbn\
!	!LO:SIC:v:n=2:s=8Bn	!	!
.	8fL 8B-/	.	16gg\
.	.	.	16ff\J)
!	!LO:SIC:v:n=2:s=8Bn	!	!
.	8fJ 8B-/	.	8dd^\J
=55	=55	=55	=55
4.AA-/	8r	.	(16ccc\LL
.	.	.	16aa-\
!	!LO:SIC:v:n=1:t=albo 8f	!	!
.	8e-L 8c/	.	16ee-\
.	.	.	16cc\J)
!	!LO:SIC:v:n=1:t=albo 8f	!	!
.	8e-J 8c/	.	8a-^\J
!LO:LB:g=original	!LO:LB:g=original	!	!LO:LB:g=original
=56	=56	=56	=56
4.AAn\	8r	.	8eee-^\L
!	!LO:SIC:v:n=3:s=8G-	!	!
.	8e-L 8c 8G</	sf	8ddd\
!	!LO:SIC:v:n=3:s=8G-	!	!
.	8e-J 8c 8G</	.	8ccc\J
=57	=57	=57	=57
4.BB-\	8r	.	(8ccc\L
.	8e-L 8B-< 8Gn</	.	8bb-\
.	8e-J 8B-< 8G</	.	8gg\J)
=58	=58	=58	=58
4.BBB-\	8r	.	(8bb-^\L
.	8dL 8A-< 8F</	.	8aa-\
.	8dJ 8A-< 8F</	.	8ff\J)
=59	=59	=59	=59
*^	*	*	*
(8E-L 8EE-/	4.EE-\	4.f 4.B-< 4.A-</	.	4.ff^\
8BB-/	.	.	.	.
8BB-/J)	.	.	.	.
*v	*v	*	*	*
=60	=60	=60	=60
!LO:TX:b:i:t=Da Capo al Fine	!	!	!
!LO:SIC:v:n=1:s=4E-	!	!	!
4D 4EE-\	4e- 4B-< 4G</	.	4ee-\
=:|!	=:|!	=:|!	=:|!
*-	*-	*-	*-
!!!system-decoration: s1[s2,s3]
!!!RDF**kern: < = below
!!!ENC: Marta Lawrence
!!!END: 2020-11-29
!!!ENC: Andrzej Kubiczek
!!!END: 2020-06-08
!!!RDF**kern: | = vertical stroke
